Papirus/24x24/panel/ic_light_enpass.svg

<?xml version="1.0" encoding="UTF-8" standalone="no"?>
<svg xmlns:dc="http://purl.org/dc/elements/1.1/" xmlns:cc="http://creativecommons.org/ns#" xmlns:rdf="http://www.w3.org/1999/02/22-rdf-syntax-ns#" xmlns:svg="http://www.w3.org/2000/svg" xmlns="http://www.w3.org/2000/svg" version="1.0" width="24" height="24" id="svg2817">
    <metadata id="metadata57">
        <rdf:RDF>
            <cc:Work rdf:about="">
                <dc:format>
                    image/svg+xml
                </dc:format>
                <dc:type rdf:resource="http://purl.org/dc/dcmitype/StillImage"/>
                <dc:title/>
            </cc:Work>
        </rdf:RDF>
    </metadata>
    <path id="rect4203-0" d="m 12,4 c -4.432,0 -8,3.568 -8,8 0,4.432 3.568,8 8,8 4.432,0 8,-3.568 8,-8 0,-4.432 -3.568,-8 -8,-8 z m -1.5,4 3,0 C 14.331001,8 15,8.679246 15,9.523438 l 0,0.763671 C 15,11.131299 14.331001,12 13.5,12 l -0.5,0 0,3.238281 C 13,15.660376 12.7905,16 12.375,16 l -0.75,0 C 11.2095,16 11.015379,15.660095 11,15.238281 L 11,12 10.5,12 C 9.6689996,12 9,11.131299 9,10.287109 L 9,9.523438 C 9,8.679246 9.6689996,8 10.5,8 Z" style="fill:#ffffff;fill-opacity:1"/>
</svg>

<?xml version="1.0" encoding="UTF-8" standalone="no"?>
<svg id="svg2817" xmlns:rdf="http://www.w3.org/1999/02/22-rdf-syntax-ns#" xmlns="http://www.w3.org/2000/svg" height="24" width="24" version="1.0" xmlns:cc="http://creativecommons.org/ns#" xmlns:dc="http://purl.org/dc/elements/1.1/">
 <metadata id="metadata57">
  <rdf:RDF>
   <cc:Work rdf:about="">
    <dc:format>image/svg+xml</dc:format>
    <dc:type rdf:resource="http://purl.org/dc/dcmitype/StillImage"/>
    <dc:title/>
   </cc:Work>
  </rdf:RDF>
 </metadata>
 <path id="rect4203-0" fill="#fff" d="m12 4c-4.432 0-8 3.568-8 8s3.568 8 8 8 8-3.568 8-8-3.568-8-8-8zm-1.5 4h3c0.831 0 1.5 0.6792 1.5 1.5234v0.76367c0 0.844-0.669 1.713-1.5 1.713h-0.5v3.2383c0 0.422-0.21 0.762-0.625 0.762h-0.75c-0.415 0-0.61-0.34-0.625-0.762v-3.238h-0.5c-0.831 0-1.5-0.869-1.5-1.713v-0.7636c0-0.8442 0.669-1.5234 1.5-1.5234z"/>
</svg>
